icons/tm.svg

<?xml version="1.0" ?>
<svg xmlns="http://www.w3.org/2000/svg" xmlns:ev="http://www.w3.org/2001/xml-events" xmlns:xlink="http://www.w3.org/1999/xlink" baseProfile="full" height="416px" version="1.1" viewBox="-1025.536669450261 866.8838487888493 12288.995209184093 8506.2323024223" width="600px">
	<defs/>
	<path d="M 4276.0,8622.0 C 4272.0,8594.0 4264.0,8580.0 4245.0,8572.0 C 4214.0,8558.0 4150.0,8557.0 4095.0,8570.0 C 4057.0,8579.0 4053.0,8577.0 4018.0,8543.0 C 3971.0,8498.0 3979.0,8474.0 4044.0,8465.0 C 4084.0,8459.0 4090.0,8454.0 4103.0,8421.0 C 4111.0,8401.0 4117.0,8384.0 4116.0,8382.0 C 4114.0,8381.0 4094.0,8387.0 4070.0,8395.0 C 4013.0,8415.0 3981.0,8414.0 3897.0,8389.0 C 3857.0,8377.0 3824.0,8366.0 3823.0,8366.0 C 3822.0,8365.0 3825.0,8347.0 3831.0,8327.0 C 3839.0,8297.0 3837.0,8282.0 3815.0,8231.0 C 3801.0,8198.0 3790.0,8161.0 3790.0,8150.0 C 3790.0,8139.0 3789.0,8130.0 3788.0,8130.0 C 3786.0,8130.0 3718.0,8117.0 3635.0,8100.0 C 3553.0,8084.0 3474.0,8070.0 3461.0,8070.0 C 3429.0,8070.0 3359.0,8011.0 3324.0,7957.0 C 3299.0,7916.0 3292.0,7912.0 3241.0,7904.0 C 3190.0,7896.0 3184.0,7892.0 3163.0,7855.0 C 3144.0,7822.0 3140.0,7800.0 3140.0,7725.0 C 3140.0,7638.0 3141.0,7633.0 3175.0,7583.0 C 3196.0,7551.0 3210.0,7519.0 3210.0,7500.0 C 3210.0,7483.0 3215.0,7449.0 3221.0,7424.0 C 3230.0,7391.0 3238.0,7378.0 3256.0,7374.0 L 3280.0,7368.0 L 3252.0,7341.0 C 3237.0,7327.0 3217.0,7304.0 3207.0,7291.0 L 3191.0,7267.0 L 3128.0,7285.0 C 3085.0,7297.0 3010.0,7305.0 2895.0,7310.0 C 2790.0,7315.0 2685.0,7326.0 2620.0,7339.0 C 2491.0,7365.0 2396.0,7366.0 2299.0,7341.0 C 2156.0,7305.0 2158.0,7305.0 2114.0,7348.0 C 1997.0,7463.0 1956.0,7521.0 1924.0,7618.0 C 1898.0,7696.0 1886.0,7717.0 1854.0,7743.0 C 1833.0,7761.0 1808.0,7782.0 1798.0,7790.0 C 1786.0,7800.0 1774.0,7836.0 1764.0,7890.0 L 1747.0,7975.0 L 1652.0,8065.0 C 1599.0,8115.0 1520.0,8177.0 1476.0,8204.0 C 1387.0,8258.0 1170.0,8365.0 1128.0,8375.0 C 1111.0,8379.0 1063.0,8371.0 993.0,8351.0 C 904.0,8326.0 866.0,8320.0 783.0,8320.0 C 687.0,8320.0 678.0,8318.0 598.0,8282.0 C 553.0,8261.0 486.0,8238.0 451.0,8231.0 C 389.0,8219.0 382.0,8214.0 196.0,8058.0 C 91.0,7969.0 4.0,7894.0 3.0,7891.0 C 1.0,7888.0 15.0,7875.0 34.0,7862.0 C 62.0,7843.0 68.0,7831.0 73.0,7794.0 C 75.0,7769.0 72.0,7729.0 64.0,7705.0 L 51.0,7660.0 L 99.0,7608.0 C 174.0,7524.0 208.0,7473.0 215.0,7427.0 C 219.0,7404.0 235.0,7337.0 251.0,7278.0 C 288.0,7140.0 288.0,7110.0 250.0,7055.0 C 225.0,7019.0 217.0,6993.0 209.0,6923.0 C 199.0,6847.0 194.0,6831.0 160.0,6786.0 C 135.0,6752.0 115.0,6708.0 100.0,6655.0 C 80.0,6585.0 79.0,6568.0 89.0,6508.0 C 95.0,6471.0 100.0,6405.0 100.0,6361.0 C 100.0,6314.0 104.0,6278.0 111.0,6274.0 C 117.0,6271.0 140.0,6240.0 162.0,6206.0 L 202.0,6145.0 L 196.0,6199.0 C 190.0,6248.0 190.0,6252.0 207.0,6244.0 C 217.0,6240.0 275.0,6234.0 335.0,6230.0 C 456.0,6224.0 610.0,6181.0 610.0,6155.0 C 610.0,6147.0 601.0,6118.0 590.0,6090.0 C 564.0,6024.0 564.0,5967.0 591.0,5931.0 C 611.0,5904.0 611.0,5901.0 595.0,5876.0 C 580.0,5853.0 571.0,5850.0 519.0,5850.0 C 462.0,5850.0 460.0,5851.0 460.0,5876.0 C 460.0,5890.0 465.0,5910.0 471.0,5921.0 C 495.0,5966.0 471.0,5957.0 405.0,5897.0 C 355.0,5852.0 327.0,5816.0 307.0,5774.0 L 280.0,5715.0 L 319.0,5615.0 L 359.0,5515.0 L 359.0,5582.0 L 360.0,5649.0 L 393.0,5639.0 C 410.0,5634.0 447.0,5625.0 474.0,5620.0 C 592.0,5596.0 595.0,5595.0 623.0,5532.0 C 637.0,5501.0 651.0,5464.0 655.0,5450.0 C 661.0,5428.0 691.0,5373.0 719.0,5330.0 C 725.0,5321.0 752.0,5313.0 787.0,5310.0 C 840.0,5305.0 845.0,5303.0 848.0,5280.0 C 850.0,5266.0 869.0,5239.0 892.0,5219.0 L 932.0,5182.0 L 905.0,5099.0 C 885.0,5039.0 864.0,5000.0 834.0,4965.0 C 797.0,4921.0 791.0,4906.0 782.0,4845.0 C 777.0,4806.0 776.0,4750.0 781.0,4720.0 C 795.0,4622.0 790.0,4535.0 765.0,4410.0 C 734.0,4257.0 732.0,4126.0 760.0,3965.0 C 771.0,3901.0 780.0,3824.0 780.0,3795.0 C 780.0,3752.0 784.0,3740.0 798.0,3737.0 C 877.0,3715.0 939.0,3706.0 1021.0,3706.0 C 1116.0,3705.0 1119.0,3706.0 1201.0,3748.0 C 1249.0,3773.0 1305.0,3794.0 1331.0,3797.0 C 1418.0,3807.0 1460.0,3875.0 1460.0,4006.0 C 1460.0,4049.0 1461.0,4051.0 1504.0,4070.0 C 1535.0,4083.0 1554.0,4100.0 1571.0,4129.0 C 1589.0,4161.0 1607.0,4176.0 1657.0,4199.0 C 1692.0,4216.0 1747.0,4250.0 1780.0,4275.0 L 1840.0,4321.0 L 1983.0,4339.0 C 2106.0,4354.0 2130.0,4355.0 2165.0,4343.0 C 2187.0,4335.0 2250.0,4325.0 2305.0,4320.0 C 2534.0,4299.0 2604.0,4313.0 2624.0,4385.0 C 2633.0,4416.0 2646.0,4432.0 2685.0,4457.0 C 2720.0,4480.0 2741.0,4488.0 2755.0,4483.0 C 2766.0,4479.0 2818.0,4476.0 2870.0,4475.0 C 2952.0,4474.0 2972.0,4470.0 3016.0,4448.0 C 3043.0,4433.0 3083.0,4418.0 3104.0,4415.0 C 3136.0,4408.0 3146.0,4412.0 3180.0,4439.0 C 3203.0,4457.0 3230.0,4470.0 3247.0,4470.0 C 3273.0,4470.0 3280.0,4462.0 3318.0,4385.0 C 3341.0,4338.0 3360.0,4288.0 3360.0,4275.0 C 3360.0,4206.0 3431.0,4166.0 3634.0,4120.0 C 3706.0,4104.0 3810.0,4074.0 3865.0,4052.0 L 3964.0,4013.0 L 3976.0,3965.0 C 3990.0,3910.0 3993.0,3907.0 4039.0,3891.0 C 4097.0,3872.0 4156.0,3877.0 4202.0,3906.0 L 4244.0,3933.0 L 4298.0,3916.0 C 4343.0,3901.0 4359.0,3900.0 4398.0,3910.0 C 4443.0,3922.0 4447.0,3921.0 4500.0,3890.0 C 4530.0,3872.0 4578.0,3849.0 4607.0,3839.0 C 4636.0,3830.0 4676.0,3810.0 4697.0,3796.0 C 4724.0,3777.0 4748.0,3770.0 4782.0,3770.0 L 4830.0,3770.0 L 4830.0,3708.0 C 4830.0,3654.0 4837.0,3632.0 4873.0,3560.0 C 4910.0,3485.0 4921.0,3472.0 4960.0,3453.0 C 4985.0,3440.0 5013.0,3421.0 5022.0,3409.0 C 5037.0,3391.0 5049.0,3389.0 5120.0,3391.0 L 5200.0,3393.0 L 5223.0,3359.0 C 5240.0,3333.0 5256.0,3324.0 5290.0,3317.0 C 5349.0,3305.0 5367.0,3288.0 5402.0,3210.0 C 5447.0,3110.0 5489.0,3051.0 5525.0,3036.0 C 5544.0,3028.0 5562.0,3010.0 5569.0,2992.0 C 5576.0,2976.0 5591.0,2959.0 5603.0,2956.0 C 5615.0,2953.0 5745.0,2950.0 5892.0,2950.0 L 6159.0,2950.0 L 6174.0,2898.0 C 6182.0,2869.0 6191.0,2805.0 6195.0,2755.0 C 6198.0,2706.0 6207.0,2634.0 6215.0,2595.0 C 6228.0,2531.0 6227.0,2516.0 6207.0,2411.0 C 6185.0,2298.0 6185.0,2297.0 6205.0,2284.0 C 6264.0,2245.0 6263.0,2247.0 6266.0,2155.0 C 6268.0,2107.0 6272.0,2055.0 6275.0,2039.0 C 6281.0,2013.0 6285.0,2010.0 6324.0,2010.0 C 6364.0,2010.0 6370.0,2006.0 6420.0,1948.0 C 6488.0,1866.0 6524.0,1842.0 6599.0,1824.0 C 6656.0,1811.0 6668.0,1812.0 6733.0,1828.0 C 6832.0,1853.0 6891.0,1842.0 6921.0,1794.0 C 6932.0,1775.0 6956.0,1752.0 6973.0,1744.0 C 7026.0,1717.0 7049.0,1690.0 7065.0,1634.0 C 7074.0,1604.0 7084.0,1580.0 7089.0,1580.0 C 7094.0,1580.0 7134.0,1616.0 7178.0,1661.0 L 7259.0,1741.0 L 7309.0,1716.0 C 7340.0,1700.0 7376.0,1690.0 7404.0,1690.0 C 7445.0,1690.0 7453.0,1695.0 7536.0,1772.0 C 7585.0,1818.0 7646.0,1866.0 7673.0,1880.0 C 7717.0,1904.0 7720.0,1907.0 7720.0,1946.0 C 7720.0,1969.0 7723.0,2008.0 7726.0,2033.0 C 7732.0,2076.0 7734.0,2079.0 7777.0,2091.0 L 7821.0,2103.0 L 7771.0,2154.0 C 7740.0,2185.0 7718.0,2218.0 7714.0,2238.0 L 7708.0,2270.0 L 7753.0,2264.0 C 7791.0,2258.0 7814.0,2263.0 7892.0,2295.0 C 7943.0,2315.0 8008.0,2345.0 8036.0,2361.0 C 8064.0,2377.0 8100.0,2390.0 8116.0,2390.0 C 8132.0,2390.0 8170.0,2400.0 8200.0,2412.0 C 8231.0,2424.0 8288.0,2436.0 8330.0,2440.0 C 8411.0,2445.0 8409.0,2444.0 8397.0,2510.0 C 8392.0,2532.0 8398.0,2538.0 8453.0,2563.0 C 8487.0,2578.0 8527.0,2590.0 8543.0,2590.0 C 8560.0,2590.0 8570.0,2595.0 8570.0,2605.0 C 8570.0,2613.0 8589.0,2628.0 8613.0,2638.0 C 8645.0,2652.0 8669.0,2675.0 8702.0,2721.0 C 8797.0,2856.0 8800.0,2864.0 8800.0,2987.0 L 8800.0,3098.0 L 8850.0,3210.0 C 8889.0,3298.0 8900.0,3333.0 8900.0,3375.0 C 8900.0,3404.0 8903.0,3448.0 8906.0,3474.0 C 8913.0,3520.0 8913.0,3520.0 8999.0,3566.0 C 9080.0,3610.0 9089.0,3613.0 9153.0,3611.0 C 9190.0,3610.0 9244.0,3615.0 9273.0,3624.0 C 9301.0,3632.0 9355.0,3644.0 9391.0,3650.0 L 9458.0,3662.0 L 9479.0,3733.0 C 9491.0,3773.0 9500.0,3816.0 9500.0,3828.0 C 9500.0,3858.0 9546.0,3923.0 9581.0,3944.0 C 9606.0,3959.0 9609.0,3959.0 9623.0,3937.0 C 9632.0,3923.0 9660.0,3907.0 9696.0,3896.0 C 9729.0,3886.0 9778.0,3865.0 9807.0,3849.0 C 9866.0,3816.0 9984.0,3788.0 10050.0,3790.0 C 10121.0,3792.0 10153.0,3816.0 10163.0,3875.0 C 10169.0,3908.0 10167.0,3938.0 10160.0,3963.0 C 10152.0,3992.0 10152.0,4014.0 10160.0,4053.0 C 10168.0,4087.0 10169.0,4117.0 10163.0,4140.0 C 10151.0,4186.0 10166.0,4258.0 10194.0,4290.0 C 10243.0,4345.0 10243.0,4346.0 10221.0,4387.0 C 10199.0,4432.0 10166.0,4450.0 10110.0,4450.0 C 10082.0,4450.0 10043.0,4464.0 9978.0,4499.0 C 9927.0,4526.0 9871.0,4551.0 9854.0,4555.0 C 9837.0,4558.0 9812.0,4572.0 9799.0,4586.0 C 9771.0,4616.0 9723.0,4630.0 9648.0,4630.0 C 9598.0,4630.0 9589.0,4627.0 9567.0,4600.0 C 9553.0,4584.0 9535.0,4570.0 9528.0,4570.0 C 9476.0,4570.0 9293.0,4667.0 9075.0,4809.0 C 9004.0,4855.0 8893.0,4918.0 8830.0,4948.0 C 8718.0,5002.0 8644.0,5053.0 8508.0,5173.0 L 8442.0,5232.0 L 8386.0,5214.0 L 8331.0,5197.0 L 8150.0,5306.0 C 7977.0,5410.0 7967.0,5419.0 7904.0,5498.0 C 7844.0,5573.0 7829.0,5585.0 7751.0,5625.0 C 7704.0,5649.0 7649.0,5685.0 7630.0,5705.0 C 7592.0,5746.0 7302.0,5940.0 7168.0,6015.0 C 7091.0,6058.0 7081.0,6067.0 7057.0,6116.0 C 7039.0,6153.0 7030.0,6187.0 7030.0,6220.0 C 7030.0,6257.0 7023.0,6280.0 7000.0,6317.0 C 6983.0,6344.0 6967.0,6384.0 6964.0,6406.0 C 6961.0,6427.0 6949.0,6466.0 6938.0,6492.0 C 6920.0,6532.0 6911.0,6541.0 6866.0,6558.0 C 6820.0,6575.0 6815.0,6580.0 6812.0,6610.0 C 6810.0,6629.0 6796.0,6662.0 6781.0,6684.0 C 6721.0,6772.0 6680.0,6867.0 6679.0,6922.0 C 6679.0,6951.0 6671.0,6997.0 6662.0,7023.0 C 6624.0,7130.0 6459.0,7280.0 6379.0,7280.0 C 6359.0,7280.0 6323.0,7287.0 6300.0,7295.0 C 6277.0,7303.0 6256.0,7310.0 6255.0,7310.0 C 6253.0,7310.0 6249.0,7290.0 6246.0,7266.0 C 6236.0,7205.0 6204.0,7183.0 6146.0,7200.0 C 6123.0,7206.0 6088.0,7222.0 6068.0,7236.0 C 6023.0,7265.0 6018.0,7265.0 5995.0,7240.0 C 5978.0,7222.0 5976.0,7222.0 5946.0,7237.0 C 5894.0,7265.0 5813.0,7270.0 5751.0,7249.0 C 5647.0,7213.0 5561.0,7244.0 5392.0,7378.0 C 5355.0,7408.0 5351.0,7415.0 5356.0,7443.0 C 5360.0,7461.0 5371.0,7494.0 5382.0,7518.0 L 5402.0,7561.0 L 5371.0,7631.0 C 5336.0,7710.0 5334.0,7722.0 5355.0,7740.0 C 5368.0,7751.0 5378.0,7749.0 5411.0,7731.0 C 5433.0,7718.0 5454.0,7710.0 5456.0,7713.0 C 5459.0,7716.0 5458.0,7734.0 5455.0,7753.0 C 5449.0,7782.0 5436.0,7797.0 5372.0,7843.0 C 5329.0,7873.0 5277.0,7903.0 5256.0,7910.0 L 5216.0,7923.0 L 5238.0,7941.0 C 5250.0,7950.0 5265.0,7960.0 5270.0,7962.0 C 5276.0,7964.0 5275.0,7979.0 5268.0,8003.0 C 5258.0,8036.0 5259.0,8046.0 5274.0,8074.0 C 5290.0,8104.0 5290.0,8110.0 5277.0,8136.0 C 5250.0,8189.0 5187.0,8227.0 5093.0,8250.0 C 5045.0,8261.0 5035.0,8260.0 4985.0,8239.0 L 4930.0,8216.0 L 4843.0,8246.0 L 4755.0,8275.0 L 4752.0,8316.0 C 4750.0,8349.0 4741.0,8365.0 4706.0,8399.0 C 4668.0,8436.0 4659.0,8440.0 4642.0,8431.0 C 4631.0,8425.0 4602.0,8420.0 4578.0,8420.0 C 4536.0,8420.0 4531.0,8424.0 4415.0,8540.0 C 4349.0,8606.0 4292.0,8660.0 4289.0,8660.0 C 4285.0,8660.0 4280.0,8643.0 4276.0,8622.0" fill="pink"/>
</svg>

<?xml version="1.0" standalone="no"?>
<!DOCTYPE svg PUBLIC "-//W3C//DTD SVG 20010904//EN"
 "http://www.w3.org/TR/2001/REC-SVG-20010904/DTD/svg10.dtd">
<svg version="1.0" xmlns="http://www.w3.org/2000/svg"
 width="1024.000000pt" height="1024.000000pt" viewBox="0 0 1024.000000 1024.000000"
 preserveAspectRatio="xMidYMid meet">
<metadata>
Created by potrace 1.10, written by Peter Selinger 2001-2011
</metadata>
<g transform="translate(0.000000,1024.000000) scale(0.100000,-0.100000)"
fill="#000000" stroke="none">
<path d="M4276 8622 c-4 -28 -12 -42 -31 -50 -31 -14 -95 -15 -150 -2 -38 9
-42 7 -77 -27 -47 -45 -39 -69 26 -78 40 -6 46 -11 59 -44 8 -20 14 -37 13
-39 -2 -1 -22 5 -46 13 -57 20 -89 19 -173 -6 -40 -12 -73 -23 -74 -23 -1 -1
2 -19 8 -39 8 -30 6 -45 -16 -96 -14 -33 -25 -70 -25 -81 0 -11 -1 -20 -2 -20
-2 0 -70 -13 -153 -30 -82 -16 -161 -30 -174 -30 -32 0 -102 -59 -137 -113
-25 -41 -32 -45 -83 -53 -51 -8 -57 -12 -78 -49 -19 -33 -23 -55 -23 -130 0
-87 1 -92 35 -142 21 -32 35 -64 35 -83 0 -17 5 -51 11 -76 9 -33 17 -46 35
-50 l24 -6 -28 -27 c-15 -14 -35 -37 -45 -50 l-16 -24 -63 18 c-43 12 -118 20
-233 25 -105 5 -210 16 -275 29 -129 26 -224 27 -321 2 -143 -36 -141 -36
-185 7 -117 115 -158 173 -190 270 -26 78 -38 99 -70 125 -21 18 -46 39 -56
47 -12 10 -24 46 -34 100 l-17 85 -95 90 c-53 50 -132 112 -176 139 -89 54
-306 161 -348 171 -17 4 -65 -4 -135 -24 -89 -25 -127 -31 -210 -31 -96 0
-105 -2 -185 -38 -45 -21 -112 -44 -147 -51 -62 -12 -69 -17 -255 -173 -105
-89 -192 -164 -193 -167 -2 -3 12 -16 31 -29 28 -19 34 -31 39 -68 2 -25 -1
-65 -9 -89 l-13 -45 48 -52 c75 -84 109 -135 116 -181 4 -23 20 -90 36 -149
37 -138 37 -168 -1 -223 -25 -36 -33 -62 -41 -132 -10 -76 -15 -92 -49 -137
-25 -34 -45 -78 -60 -131 -20 -70 -21 -87 -11 -147 6 -37 11 -103 11 -147 0
-47 4 -83 11 -87 6 -3 29 -34 51 -68 l40 -61 -6 54 c-6 49 -6 53 11 45 10 -4
68 -10 128 -14 121 -6 275 -49 275 -75 0 -8 -9 -37 -20 -65 -26 -66 -26 -123
1 -159 20 -27 20 -30 4 -55 -15 -23 -24 -26 -76 -26 -57 0 -59 1 -59 26 0 14
5 34 11 45 24 45 0 36 -66 -24 -50 -45 -78 -81 -98 -123 l-27 -59 39 -100 40
-100 0 67 1 67 33 -10 c17 -5 54 -14 81 -19 118 -24 121 -25 149 -88 14 -31
28 -68 32 -82 6 -22 36 -77 64 -120 6 -9 33 -17 68 -20 53 -5 58 -7 61 -30 2
-14 21 -41 44 -61 l40 -37 -27 -83 c-20 -60 -41 -99 -71 -134 -37 -44 -43 -59
-52 -120 -5 -39 -6 -95 -1 -125 14 -98 9 -185 -16 -310 -31 -153 -33 -284 -5
-445 11 -64 20 -141 20 -170 0 -43 4 -55 18 -58 79 -22 141 -31 223 -31 95 -1
98 0 180 42 48 25 104 46 130 49 87 10 129 78 129 209 0 43 1 45 44 64 31 13
50 30 67 59 18 32 36 47 86 70 35 17 90 51 123 76 l60 46 143 18 c123 15 147
16 182 4 22 -8 85 -18 140 -23 229 -21 299 -7 319 65 9 31 22 47 61 72 35 23
56 31 70 26 11 -4 63 -7 115 -8 82 -1 102 -5 146 -27 27 -15 67 -30 88 -33 32
-7 42 -3 76 24 23 18 50 31 67 31 26 0 33 -8 71 -85 23 -47 42 -97 42 -110 0
-69 71 -109 274 -155 72 -16 176 -46 231 -68 l99 -39 12 -48 c14 -55 17 -58
63 -74 58 -19 117 -14 163 15 l42 27 54 -17 c45 -15 61 -16 100 -6 45 12 49
11 102 -20 30 -18 78 -41 107 -51 29 -9 69 -29 90 -43 27 -19 51 -26 85 -26
l48 0 0 -62 c0 -54 7 -76 43 -148 37 -75 48 -88 87 -107 25 -13 53 -32 62 -44
15 -18 27 -20 98 -18 l80 2 23 -34 c17 -26 33 -35 67 -42 59 -12 77 -29 112
-107 45 -100 87 -159 123 -174 19 -8 37 -26 44 -44 7 -16 22 -33 34 -36 12 -3
142 -6 289 -6 l267 0 15 -52 c8 -29 17 -93 21 -143 3 -49 12 -121 20 -160 13
-64 12 -79 -8 -184 -22 -113 -22 -114 -2 -127 59 -39 58 -37 61 -129 2 -48 6
-100 9 -116 6 -26 10 -29 49 -29 40 0 46 -4 96 -62 68 -82 104 -106 179 -124
57 -13 69 -12 134 4 99 25 158 14 188 -34 11 -19 35 -42 52 -50 53 -27 76 -54
92 -110 9 -30 19 -54 24 -54 5 0 45 36 89 81 l81 80 50 -25 c31 -16 67 -26 95
-26 41 0 49 5 132 82 49 46 110 94 137 108 44 24 47 27 47 66 0 23 3 62 6 87
6 43 8 46 51 58 l44 12 -50 51 c-31 31 -53 64 -57 84 l-6 32 45 -6 c38 -6 61
-1 139 31 51 20 116 50 144 66 28 16 64 29 80 29 16 0 54 10 84 22 31 12 88
24 130 28 81 5 79 4 67 70 -5 22 1 28 56 53 34 15 74 27 90 27 17 0 27 5 27
15 0 8 19 23 43 33 32 14 56 37 89 83 95 135 98 143 98 266 l0 111 50 112 c39
88 50 123 50 165 0 29 3 73 6 99 7 46 7 46 93 92 81 44 90 47 154 45 37 -1 91
4 120 13 28 8 82 20 118 26 l67 12 21 71 c12 40 21 83 21 95 0 30 46 95 81
116 25 15 28 15 42 -7 9 -14 37 -30 73 -41 33 -10 82 -31 111 -47 59 -33 177
-61 243 -59 71 2 103 26 113 85 6 33 4 63 -3 88 -8 29 -8 51 0 90 8 34 9 64 3
87 -12 46 3 118 31 150 49 55 49 56 27 97 -22 45 -55 63 -111 63 -28 0 -67 14
-132 49 -51 27 -107 52 -124 56 -17 3 -42 17 -55 31 -28 30 -76 44 -151 44
-50 0 -59 -3 -81 -30 -14 -16 -32 -30 -39 -30 -52 0 -235 97 -453 239 -71 46
-182 109 -245 139 -112 54 -186 105 -322 225 l-66 59 -56 -18 -55 -17 -181
109 c-173 104 -183 113 -246 192 -60 75 -75 87 -153 127 -47 24 -102 60 -121
80 -38 41 -328 235 -462 310 -77 43 -87 52 -111 101 -18 37 -27 71 -27 104 0
37 -7 60 -30 97 -17 27 -33 67 -36 89 -3 21 -15 60 -26 86 -18 40 -27 49 -72
66 -46 17 -51 22 -54 52 -2 19 -16 52 -31 74 -60 88 -101 183 -102 238 0 29
-8 75 -17 101 -38 107 -203 257 -283 257 -20 0 -56 7 -79 15 -23 8 -44 15 -45
15 -2 0 -6 -20 -9 -44 -10 -61 -42 -83 -100 -66 -23 6 -58 22 -78 36 -45 29
-50 29 -73 4 -17 -18 -19 -18 -49 -3 -52 28 -133 33 -195 12 -104 -36 -190 -5
-359 129 -37 30 -41 37 -36 65 4 18 15 51 26 75 l20 43 -31 70 c-35 79 -37 91
-16 109 13 11 23 9 56 -9 22 -13 43 -21 45 -18 3 3 2 21 -1 40 -6 29 -19 44
-83 90 -43 30 -95 60 -116 67 l-40 13 22 18 c12 9 27 19 32 21 6 2 5 17 -2 41
-10 33 -9 43 6 71 16 30 16 36 3 62 -27 53 -90 91 -184 114 -48 11 -58 10
-108 -11 l-55 -23 -87 30 -88 29 -3 41 c-2 33 -11 49 -46 83 -38 37 -47 41
-64 32 -11 -6 -40 -11 -64 -11 -42 0 -47 4 -163 120 -66 66 -123 120 -126 120
-4 0 -9 -17 -13 -38z"/>
</g>
</svg>
